X:111
T:Dorsetshire March. JGi.111
O:Tealby,Lincolnshire
M:4/4
L:1/8
Q:1/4=120
S:Joshua Gibbons MS,1823,Tealby,Lincs.
R:march
Z:VMP/R.Greig, 2009
K:C
C2|E2C>EG2E>G|c2G>ce2c>e|g2a>gf2(ed/e/)|d2d>dd2C2|
E2C>EG2E>G|A2f>dB2A>G|A>Bc>fe2(dc/d/)|c2c>cc2:|
|:G2|c2e>cA2c>A|G>Ec>A GEDC|EGcB A>GF>E|D2D>DD2C>E|
E2C>EG2E>G|A>Bc>dB2AG|Aagfe2(dc/d/)|c2c>cc2:|

